src/icons/kubernetes.svg

<svg version="1.1" viewBox="0 0 24 24" xmlns="http://www.w3.org/2000/svg">
 <path d="m12.074 1.4237c-0.04078-0.00362-0.08293-0.00258-0.12591 0.00279-0.34382 0.042977-0.58824 0.34449-0.5596 0.6883v0.17347c0.01433 0.20056 0.04377 0.40134 0.08675 0.58757 0.05731 0.35814 0.08428 0.72994 0.06995 1.1024-0.04297 0.14326-0.10118 0.24421-0.20146 0.33016l-0.01403 0.25742c-0.37248 0.028651-0.75826 0.084723-1.1164 0.17068-1.5328 0.34382-2.9378 1.1455-4.0122 2.2915l-0.21265-0.15669c-0.12893 0.028651-0.26032 0.015333-0.37493-0.04197-0.30084-0.21488-0.57034-0.47487-0.8282-0.74706-0.12893-0.14326-0.25965-0.29916-0.40291-0.42809l-0.12871-0.10073c-0.12893-0.10028-0.27331-0.15635-0.43089-0.17068-0.20056 0-0.37191 0.06939-0.50084 0.21265-0.20056 0.30084-0.12703 0.67454 0.15948 0.90374l0.013997 0.013996c0.028651 0.028651 0.086066 0.072077 0.11472 0.10073 0.17191 0.1146 0.34292 0.21343 0.51483 0.29938 0.32949 0.18623 0.63122 0.4028 0.91773 0.64633 0.071629 0.10028 0.11472 0.22921 0.11472 0.35814l0.19865 0.17067c-1.0887 1.6331-1.5319 3.5973-1.2311 5.5456l-0.2714 0.06995c-0.071629 0.1146-0.1596 0.20257-0.2742 0.2742-0.35814 0.08595-0.72994 0.17068-1.1024 0.17068-0.18623 0-0.38702-0.0013-0.58757 0.05596l-0.15669 0.03079h-0.013997v0.01403c-0.042977 1e-6 -0.086066 0.01403-0.11472 0.01403-0.34381 0.1146-0.50039 0.45954-0.40011 0.78903 0.1146 0.31516 0.45708 0.4864 0.77224 0.38612 0.085954-0.01433 0.14449-0.03044 0.18746-0.04477 0.18623-0.05731 0.37124-0.1267 0.52882-0.21265 0.37247-0.12903 0.71562-0.24465 1.1024-0.31628 0.1146 0 0.24421 0.05708 0.33016 0.1287l0.28539-0.04198c0.60167 1.8623 1.8633 3.4236 3.5394 4.4264l-0.10073 0.25741c0.042977 0.1146 0.059093 0.24354 0.044767 0.35814-0.14326 0.34382-0.33038 0.68685-0.55959 0.98768-0.1146 0.17191-0.21522 0.32893-0.34415 0.50084 0 0.04297 0.00135 0.11651-0.05596 0.15948-0.014326 0.04298-0.044433 0.07174-0.058757 0.11472-0.1146 0.32949 0.056967 0.67162 0.37213 0.78623 0.32949 0.1146 0.67442-0.05698 0.78903-0.37213 0.028651-0.04297 0.055288-0.1427 0.083939-0.1427 0.071629-0.20056 0.1305-0.38735 0.17347-0.57358 0.12893-0.40111 0.2723-0.75859 0.47286-1.1024 0.071629-0.07164 0.17112-0.11438 0.2714-0.1287l0.14269-0.2574c1.8193 0.70195 3.8403 0.70162 5.6883 0.01403l0.11472 0.22944c0.1146 0.02864 0.22776 0.09837 0.29938 0.19866 0.18623 0.32949 0.30196 0.67431 0.43089 1.0325 0.04297 0.18623 0.10185 0.37269 0.17347 0.58757 0.02864 0 0.05528 0.08572 0.08393 0.1287 0.01433 0.04297 0.03044 0.07174 0.04477 0.11472 0.17191 0.28651 0.54415 0.40168 0.84499 0.21544 0.30084-0.18623 0.38455-0.55847 0.21264-0.84499-0.01433-0.05731-0.05596-0.13049-0.05596-0.17347-0.11461-0.15758-0.22955-0.32926-0.34415-0.48685-0.21488-0.31516-0.3709-0.62988-0.54281-0.97369-0.04297-0.12893-0.01533-0.25753 0.04198-0.37213-0.04297-0.07164-0.07206-0.15747-0.10073-0.24342 1.6618-1.0028 2.9521-2.5777 3.5394-4.4544 0.08595 0.01433 0.17112 0.02765 0.2714 0.04198 0.08595-0.1146 0.20123-0.11472 0.33016-0.11472 0.38679 0.05731 0.72993 0.15893 1.1024 0.30218 0.15758 0.08595 0.3286 0.15534 0.51483 0.21264 0.05731 0.01433 0.11549 0.03077 0.20145 0.03077v0.01403c0 0.01433 0.05775 0.01362 0.10073 0.02797 0.34382 0.04297 0.61667-0.20212 0.6883-0.53161 0.04297-0.34381-0.1878-0.65652-0.53161-0.69949-0.05731-0.01433-0.1277-0.02976-0.17068-0.07274h-0.58757c-0.37247-0.04297-0.74426-0.10117-1.1024-0.20146-0.1146-0.05731-0.2169-0.14281-0.2742-0.25741l-0.2714-0.06994c0.28651-1.9339-0.15881-3.9128-1.2619-5.5316l0.22943-0.19874c-0.01433-0.12893 0.02877-0.24387 0.11472-0.34415 0.27219-0.24354 0.58825-0.4601 0.91774-0.64633 0.17191-0.085954 0.34326-0.18478 0.50084-0.29938 0.04298-0.028651 0.10005-0.072077 0.1287-0.10073 0.04298-0.028651 0.08675-0.058086 0.08675-0.086738 0.25786-0.24354 0.27219-0.62977 0-0.85898-0.21488-0.25786-0.60145-0.25786-0.84499 0-0.04297 0-0.09971 0.058086-0.1427 0.086738-0.14326 0.14326-0.27398 0.28483-0.40291 0.42809-0.24354 0.27219-0.53016 0.53217-0.831 0.74706-0.1146 0.057302-0.2432 0.070621-0.37213 0.041971l-0.22944 0.17068c-1.3466-1.4182-3.1496-2.2903-5.0979-2.4622l-0.01403-0.2742c-0.10028-0.071629-0.1728-0.17012-0.20146-0.31337-0.01433-0.37247 0.0126-0.74426 0.06995-1.1024 0.04297-0.18623 0.07242-0.38702 0.08675-0.58757v-0.31617c-0.037571-0.2883-0.26016-0.5231-0.54557-0.5484zm-0.84219 4.7733-0.17347 3.2233h-0.01403c-0.01433 0.1146-0.0431 0.21623-0.11472 0.30218-0.17191 0.24354-0.50072 0.28629-0.74426 0.1287h-0.01403l-2.6356-1.8774c0.83088-0.83088 1.8898-1.4041 3.0358-1.662 0.22921-0.042977 0.44544-0.086066 0.66032-0.11472zm1.5445 0c1.3753 0.17191 2.6793 0.78825 3.6821 1.7767l-2.6217 1.8774h-0.01403c-0.08595 0.042976-0.18478 0.072741-0.29938 0.072741-0.30084 0.014327-0.54527-0.21679-0.5596-0.51762zm-6.2003 2.9379 2.4063 2.1908v0.01404c0.085954 0.07163 0.15669 0.1596 0.15669 0.2742 0.085954 0.28651-0.085618 0.5859-0.37213 0.65752v0.01403l-3.0946 0.88966c-0.15758-1.4039 0.15881-2.8083 0.90374-4.0403zm10.842 0.041974c0.7306 1.189 1.032 2.5947 0.93172 3.9843l-3.1085-0.88976-0.01403-0.01403c-0.10028-0.02864-0.18579-0.08473-0.25742-0.17068-0.20056-0.21488-0.17325-0.56049 0.05596-0.76105l-0.0139-0.04193zm-5.9149 2.3223h0.98768l0.61555 0.75825-0.21544 0.9597-0.88696 0.43089-0.88696-0.43089-0.22943-0.9597zm-2.3083 2.6497h0.11472c0.24353 0 0.45965 0.17057 0.5456 0.4141 0 0.10028 0.00131 0.23056-0.055956 0.30218v0.04198l-1.2199 2.9658c-1.189-0.75926-2.0902-1.8773-2.5629-3.1953zm5.2742 0h0.34415l3.1925 0.51483c-0.47274 1.3323-1.3739 2.464-2.5629 3.2233l-1.2339-3.0218c-0.1146-0.25786 0.0023-0.5587 0.26021-0.71628zm-2.521 1.2983c0.20817-0.02014 0.42137 0.0836 0.52882 0.277h0.01403l1.5613 2.8232c-0.20056 0.07164-0.415 0.1277-0.61556 0.17068-1.1604 0.27219-2.3633 0.20179-3.4807-0.17068l1.5613-2.8232h0.01403c0.04297-0.10028 0.11516-0.14382 0.21544-0.21544 0.06447-0.03581 0.13207-0.05484 0.20146-0.06156z" fill="#448aff" stroke-width="1.4326"/>
</svg>

<svg viewBox="0 0 24 24" xmlns="http://www.w3.org/2000/svg">
  <path
    d="M12.074 1.4237C12.0332 1.42008 11.9911 1.42112 11.9481 1.42649C11.6043 1.46947 11.3599 1.77098 11.3885 2.11479V2.28826C11.4028 2.48882 11.4323 2.6896 11.4752 2.87583C11.5326 3.23397 11.5595 3.60577 11.5452 3.97823C11.5022 4.12149 11.444 4.22244 11.3437 4.30839L11.3297 4.56581C10.9572 4.59446 10.5714 4.65053 10.2133 4.73649C8.6805 5.08031 7.2755 5.88199 6.2011 7.02799L5.98845 6.8713C5.85952 6.89995 5.72813 6.88663 5.61352 6.82933C5.31268 6.61445 5.04318 6.35446 4.78532 6.08227C4.65639 5.93901 4.52567 5.78311 4.38241 5.65418L4.2537 5.55345C4.12477 5.45317 3.98039 5.3971 3.82281 5.38277C3.62225 5.38277 3.4509 5.45216 3.32197 5.59542C3.12141 5.89626 3.19494 6.26996 3.48145 6.49916L3.49545 6.51315C3.5241 6.54181 3.58152 6.58523 3.61017 6.61388C3.78208 6.72848 3.95309 6.82731 4.125 6.91326C4.45449 7.09949 4.75622 7.31606 5.04273 7.55959C5.11436 7.65987 5.15745 7.7888 5.15745 7.91773L5.3561 8.0884C4.2674 9.7215 3.8242 11.6857 4.125 13.634L3.8536 13.704C3.78197 13.8186 3.694 13.9065 3.5794 13.9782C3.22126 14.0641 2.84946 14.1488 2.477 14.1488C2.29077 14.1488 2.08998 14.1475 1.88943 14.2048L1.73274 14.2356H1.71874V14.2496C1.67577 14.2496 1.63268 14.2636 1.60402 14.2636C1.26021 14.3782 1.10363 14.7232 1.20391 15.0527C1.31851 15.3678 1.66099 15.5391 1.97615 15.4388C2.06211 15.4245 2.12064 15.4084 2.16361 15.394C2.34984 15.3367 2.53485 15.2673 2.69243 15.1814C3.0649 15.0523 3.40805 14.9367 3.79483 14.8651C3.90943 14.8651 4.03904 14.9222 4.12499 14.9938L4.41038 14.9518C5.01205 16.8141 6.27368 18.3754 7.94978 19.3782L7.84905 19.6356C7.89203 19.7502 7.90815 19.8792 7.89382 19.9938C7.75056 20.3376 7.56344 20.6806 7.33423 20.9814C7.21963 21.1534 7.11901 21.3104 6.99008 21.4823C6.99008 21.5253 6.99143 21.5988 6.93412 21.6418C6.91979 21.6847 6.88969 21.7135 6.87536 21.7565C6.76076 22.086 6.93233 22.4281 7.24749 22.5427C7.57698 22.6573 7.92191 22.4857 8.03652 22.1706C8.06517 22.1276 8.09181 22.0279 8.12046 22.0279C8.19209 21.8273 8.25096 21.6405 8.29393 21.4543C8.42286 21.0532 8.56623 20.6957 8.76679 20.3519C8.83842 20.2803 8.93791 20.2375 9.03819 20.2232L9.18088 19.9658C11.0002 20.6678 13.0212 20.6674 14.8692 19.9798L14.9839 20.2093C15.0985 20.2379 15.2117 20.3076 15.2833 20.4079C15.4695 20.7374 15.5852 21.0822 15.7142 21.4404C15.7571 21.6267 15.816 21.8131 15.8876 22.028C15.9163 22.028 15.9429 22.1137 15.9716 22.1567C15.9859 22.1997 16.002 22.2284 16.0163 22.2714C16.1883 22.5579 16.5605 22.6731 16.8613 22.4869C17.1622 22.3006 17.2459 21.9284 17.074 21.6419C17.0596 21.5846 17.018 21.5114 17.018 21.4684C16.9034 21.3108 16.7885 21.1391 16.6739 20.9816C16.459 20.6664 16.303 20.3517 16.1311 20.0079C16.0881 19.8789 16.1157 19.7503 16.173 19.6357C16.1301 19.5641 16.101 19.4783 16.0723 19.3923C17.7341 18.3895 19.0244 16.8146 19.6117 14.9379C19.6977 14.9522 19.7828 14.9656 19.8831 14.9799C19.9691 14.8653 20.0843 14.8652 20.2133 14.8652C20.6001 14.9225 20.9432 15.0241 21.3157 15.1674C21.4732 15.2533 21.6443 15.3227 21.8305 15.38C21.8878 15.3943 21.946 15.4108 22.0319 15.4108V15.4248C22.0319 15.4391 22.0897 15.4384 22.1327 15.4528C22.4765 15.4957 22.7493 15.2506 22.821 14.9212C22.8639 14.5773 22.6332 14.2646 22.2894 14.2217C22.2321 14.2073 22.1617 14.1919 22.1187 14.1489H21.5311C21.1586 14.106 20.7869 14.0478 20.4287 13.9475C20.3141 13.8902 20.2118 13.8047 20.1545 13.6901L19.8831 13.6201C20.1696 11.6862 19.7243 9.70731 18.6212 8.08851L18.8506 7.88977C18.8363 7.76084 18.8794 7.6459 18.9654 7.54562C19.2376 7.30208 19.5536 7.08552 19.8831 6.89929C20.055 6.81334 20.2264 6.71451 20.3839 6.59991C20.4269 6.57126 20.484 6.52784 20.5126 6.49918C20.5556 6.47053 20.5994 6.4411 20.5994 6.41245C20.8573 6.16891 20.8716 5.78268 20.5994 5.55347C20.3845 5.29561 19.9979 5.29561 19.7544 5.55347C19.7114 5.55347 19.6547 5.61155 19.6117 5.6402C19.4684 5.78346 19.3377 5.92503 19.2088 6.06829C18.9653 6.34048 18.6786 6.60046 18.3778 6.81535C18.2632 6.87266 18.1346 6.88598 18.0057 6.85733L17.7762 7.02801C16.4296 5.60981 14.6266 4.73771 12.6783 4.56581L12.6643 4.29161C12.564 4.21998 12.4915 4.12149 12.4628 3.97824C12.4485 3.60577 12.4754 3.23398 12.5328 2.87584C12.5758 2.68961 12.6052 2.48882 12.6195 2.28827V1.9721C12.582 1.6838 12.3594 1.449 12.074 1.4237ZM11.2318 6.197L11.0583 9.4203H11.0443C11.03 9.5349 11.0012 9.63653 10.9296 9.72248C10.7577 9.96602 10.4289 10.0088 10.1853 9.85118H10.1713L7.5357 7.97378C8.36658 7.1429 9.4255 6.56968 10.5715 6.31178C10.8007 6.2688 11.0169 6.22565 11.2318 6.197ZM12.7763 6.197C14.1516 6.36891 15.4556 6.98525 16.4584 7.9737L13.8367 9.8511H13.8227C13.7367 9.89408 13.6379 9.92384 13.5233 9.92384C13.2225 9.93817 12.978 9.70705 12.9637 9.40622L12.7763 6.197ZM6.57601 9.1349L8.98231 11.3257V11.3397C9.06827 11.4114 9.139 11.4993 9.139 11.6139C9.22496 11.9004 9.05338 12.1998 8.76687 12.2715V12.2855L5.67227 13.1751C5.51469 11.7712 5.83108 10.3669 6.57601 9.1349ZM17.418 9.17687C18.1486 10.3659 18.45 11.7716 18.3497 13.1612L15.2412 12.2714L15.2272 12.2574C15.1269 12.2287 15.0414 12.1727 14.9698 12.0867C14.7692 11.8718 14.7965 11.5262 15.0257 11.3257L15.0118 11.2837L17.418 9.17687ZM11.5031 11.4992H12.4908L13.1063 12.2574L12.8909 13.2171L12.0039 13.648L11.117 13.2171L10.8876 12.2574L11.5031 11.4992ZM9.19481 14.1489H9.30953C9.55306 14.1489 9.76918 14.3194 9.85513 14.563C9.85513 14.6633 9.85644 14.7935 9.79918 14.8652V14.9071L8.57928 17.8729C7.39028 17.1137 6.48908 15.9956 6.01638 14.6776L9.19481 14.1489ZM14.469 14.1489H14.8132L18.0057 14.6637C17.5329 15.996 16.6318 17.1277 15.4428 17.887L14.2089 14.8652C14.0943 14.6073 14.2111 14.3065 14.469 14.1489ZM11.948 15.4472C12.1562 15.427 12.3694 15.5308 12.4768 15.7242H12.4909L14.0522 18.5474C13.8516 18.619 13.6372 18.6751 13.4366 18.7181C12.2762 18.9902 11.0733 18.9198 9.9559 18.5474L11.5172 15.7242H11.5312C11.5742 15.6239 11.6464 15.5804 11.7467 15.5087C11.8111 15.4729 11.8786 15.4539 11.948 15.4472Z"
    fill="#448AFF"
  />
</svg>
